client/public/assets/icons/standard/work_type.svg

<svg id="icons" xmlns="http://www.w3.org/2000/svg" width="100" height="100" viewBox="0 0 100 100"><title>work_type</title><path d="M75.87,29.25l-9-8.88A1.13,1.13,0,0,0,66,20a1.39,1.39,0,0,0-1.38,1.38v6.38a3.89,3.89,0,0,0,3.87,3.87h6.37a1.39,1.39,0,0,0,1.38-1.38A1.66,1.66,0,0,0,75.87,29.25Z" fill="#fff" fill-rule="evenodd"/><path d="M29.63,62.63v-31a5.84,5.84,0,0,0-5.88,5.75V74.12A5.87,5.87,0,0,0,29.63,80H58.75a5.84,5.84,0,0,0,5.88-5.75H41.25C34.88,74.25,29.63,74.25,29.63,62.63Z" fill="#fff" fill-rule="evenodd"/><path d="M74.25,37.38H64.5a5.84,5.84,0,0,1-5.87-5.75V21.88A1.77,1.77,0,0,0,56.75,20H41.25a5.84,5.84,0,0,0-5.87,5.75V62.5a5.76,5.76,0,0,0,5.88,5.75H70.38a5.84,5.84,0,0,0,5.88-5.75V39.38A2,2,0,0,0,74.25,37.38ZM49.91,62.22a2.49,2.49,0,0,1-2.49,2.49h-5A2.49,2.49,0,0,1,40,62.22v-5a2.49,2.49,0,0,1,2.49-2.49h5a2.49,2.49,0,0,1,2.49,2.49Zm0-13.68A2.49,2.49,0,0,1,47.43,51h-5A2.49,2.49,0,0,1,40,48.54v-5a2.49,2.49,0,0,1,2.49-2.49h5a2.49,2.49,0,0,1,2.49,2.49ZM63.59,62.22A2.49,2.49,0,0,1,61.1,64.7h-5a2.49,2.49,0,0,1-2.49-2.49v-5a2.49,2.49,0,0,1,2.49-2.49h5a2.49,2.49,0,0,1,2.49,2.49Zm0-13.68A2.49,2.49,0,0,1,61.1,51h-5a2.49,2.49,0,0,1-2.49-2.49v-5a2.49,2.49,0,0,1,2.49-2.49h5a2.49,2.49,0,0,1,2.49,2.49Z" fill="#fff" fill-rule="evenodd"/></svg>

<?xml version="1.0"?><svg xmlns="http://www.w3.org/2000/svg" width="100" height="100" viewBox="0 0 100 100"><title></title><path d="m75.9 29.3l-9-8.9a1.1 1.1 0 0 0-0.9-0.4 1.4 1.4 0 0 0-1.4 1.4v6.4a3.9 3.9 0 0 0 3.9 3.8h6.4a1.4 1.4 0 0 0 1.3-1.3 1.7 1.7 0 0 0-0.3-1z m-46.3 33.3v-31a5.8 5.8 0 0 0-5.8 5.8v36.7a5.9 5.9 0 0 0 5.8 5.9h29.2a5.8 5.8 0 0 0 5.8-5.7h-23.3c-6.4 0-11.7 0-11.7-11.7z m44.7-25.2h-9.8a5.8 5.8 0 0 1-5.9-5.8v-9.7a1.8 1.8 0 0 0-1.8-1.9h-15.5a5.8 5.8 0 0 0-5.9 5.8v36.7a5.8 5.8 0 0 0 5.9 5.8h29.1a5.8 5.8 0 0 0 5.9-5.8v-23.1a2 2 0 0 0-2-2z m-24.4 24.8a2.5 2.5 0 0 1-2.5 2.5h-5a2.5 2.5 0 0 1-2.4-2.5v-5a2.5 2.5 0 0 1 2.5-2.5h5a2.5 2.5 0 0 1 2.5 2.5z m0-13.7a2.5 2.5 0 0 1-2.5 2.5h-5a2.5 2.5 0 0 1-2.4-2.5v-5a2.5 2.5 0 0 1 2.5-2.5h5a2.5 2.5 0 0 1 2.5 2.5z m13.7 13.7a2.5 2.5 0 0 1-2.5 2.5h-5a2.5 2.5 0 0 1-2.5-2.5v-5a2.5 2.5 0 0 1 2.5-2.5h5a2.5 2.5 0 0 1 2.5 2.5z m0-13.7a2.5 2.5 0 0 1-2.5 2.5h-5a2.5 2.5 0 0 1-2.5-2.5v-5a2.5 2.5 0 0 1 2.5-2.5h5a2.5 2.5 0 0 1 2.5 2.5z" fill="#fff" fill-rule="evenodd"></path></svg>
